build/img/zoom.svg

<svg width="47" height="47" viewBox="0 0 47 47" fill="none" xmlns="http://www.w3.org/2000/svg">
<path d="M34.058 18.1533C34.058 9.37447 26.9484 2.26916 18.1643 2.26916V6.80748C24.4366 6.80748 29.5169 11.8847 29.5169 18.1533C29.5169 24.4218 24.4366 29.4991 18.1643 29.4991C11.8919 29.4991 6.81159 24.4218 6.81159 18.1533H2.27053C2.28472 26.9321 9.4227 34.0232 18.1926 34.0091C21.5984 33.9949 24.9191 32.9028 27.6437 30.8606L43.7929 47L47 43.7948L30.8792 27.6412C32.9369 24.904 34.0438 21.5712 34.058 18.1533Z" fill="white"/>
<path d="M4.54106 13.615H9.08213V9.07664H13.6232V4.53832H9.08213V0H4.54106V4.53832H0V9.07664H4.54106V13.615Z" fill="white"/>
</svg>

<svg width="47" height="47" fill="none" xmlns="http://www.w3.org/2000/svg"><path d="M34.058 18.153c0-8.779-7.11-15.884-15.894-15.884v4.538c6.273 0 11.353 5.078 11.353 11.346 0 6.269-5.08 11.346-11.353 11.346-6.272 0-11.352-5.077-11.352-11.346H2.27c.014 8.78 7.152 15.87 15.922 15.856a15.863 15.863 0 009.45-3.148L43.794 47 47 43.795 30.88 27.64a15.9 15.9 0 003.178-9.488z" fill="#fff"/><path d="M4.541 13.615h4.541V9.077h4.541V4.538h-4.54V0H4.54v4.538H0v4.539h4.541v4.538z" fill="#fff"/></svg>
